X:1
T:Title
%%score 1 2 3 4
L:1/8
M:4/2
K:C
V:1 treble nm="Part_1"
V:2 treble nm="Part_2"
V:3 treble-8 nm="Part_3"
V:4 bass nm="Part_4"
V:1
 c2 B2 c2 d2 e2 fe d3 c | c2 dc B3 B A4 z4 | z16 | z8 c2 B2 c2 d2 | e2 fe d3 c c2 dc B3 B | %5
 A4 z4 z8 | z16 | z16 | z16 | z16 | z16 | z16 | z16 |[M:6/2] z24 | z24 | z24 | z24 | z24 | z24 | %19
 z24 | z24 | z24 |[M:3/2] z12 |[M:4/4] z8 |[M:4/2] c2 B2 c2 d2 e2 fe d3 c | c2 dc B3 A Aaef ggfe | %26
 f2 e2 z4 z8 | z8 z2 e2 ^ffdc | B4 A4 z8 | z8 c2 B2 c2 d2 | e2 fe d3 d c2 dc B3 B | A4 z4 z8 | %32
[M:6/2] g3 f e2 g2 f2 e2 d4 d4 z4 | a3 g f2 a2 g2 f2 e4 e4 z4 | z24 | g3 f e2 g2 f2 e2 d4 d4 z4 | %36
 z24 |[M:3/2] z12 |[M:4/2] z16 | z16 | z16 | z16 |[M:6/2] z16 z8 |[M:4/4] z8 |[M:6/2] z24 | z24 | %46
 z24 | z24 | z24 | z24 | z24 | z24 | z24 |[M:3/2] z12 |[M:4/2] z8 c2 B2 c2 d2 | %55
 e2 fe d3 d c2 dc B3 B | Aaef ggfe f2 d2 z4 | z16 | z2 e2 ^ffdc B4 A4 | z16 | z16 | z16 | %62
 z8 z2 ef ge a^f | g4 z4 z2 ^fg af b^g | a4 z4 z2 AB cd B2 | A4 z4 z8 | z8 z2 ^fg a=b ^g2 | %67
 a4 z4 z2 AB cd B2 | A4 z4 z e/d/ ^cd/e/ A4 | z d/c/ Bc/d/ G4 z a/g/ fg/a/ de/f/ gf | e4 d4 z8 | %71
 z8 z a/g/ fg/a/ de/f/ gf | e4 d4 z8 | z8 z2 z a/g/ ^fg a2- | a2 g2 a4 z8 | %75
 z2 z a/g/ ^fg a4 g2 a4 | z16 | z2 f4 a2 a4 ^g4 | a16 |] %79
V:2
 A2 ^G2 A2 B2 c2 dc c2 B2 | cE A4 ^G2 A4 z4 | z16 | z8 A2 ^G2 A2 B2 | c2 dc c2 B2 cE A4 ^G2 | %5
 A4 z4 z8 | z16 | z16 | z16 | z16 | z16 | z16 | z16 |[M:6/2] z24 | z24 | z24 | z24 | z24 | z24 | %19
 z24 | z24 | z24 |[M:3/2] z12 |[M:4/4] z8 |[M:4/2] A2 ^G2 A2 B2 c2 dc c2 B2 | cE A4 ^G2 A4 z eBc | %26
 ddcB A2 B2 z8 | z8 z2 e2 d2 AA | A2 ^G2 A4 z8 | z8 A2 ^G2 A2 B2 | c2 dc c2 B2 cE A4 ^G2 | %31
 A4 z4 z8 |[M:6/2] e3 d c2 e2 d2 c2 B4 B4 z4 | f3 e d2 f2 e2 d2 c4 c4 z4 | z24 | %35
 e3 d c2 e2 d2 c2 B4 B4 z4 | z24 |[M:3/2] z12 |[M:4/2] z16 | z16 | z16 | z16 |[M:6/2] z16 z8 | %43
[M:4/4] z8 |[M:6/2] z24 | z24 | z24 | z24 | z24 | z24 | z24 | z24 | z24 |[M:3/2] z12 | %54
[M:4/2] z8 A2 ^G2 A2 B2 | c2 dc c2 B2 cE A4 ^G2 | A4 z eBc d2 cB A2 B2 | z16 | %58
 z2 e2 d2 AA A2 ^G2 A4 | z16 | z16 | z16 | z2 AB cA dB c4 z4 | z2 Bc dB ec d4 z4 | %64
 z8 z2 ^FG AB ^G2 | A4 z4 z2 ef ga ^f2 | g4 z4 z8 | z8 z2 ^F^G AB G2 | A4 z4 z4 z a/g/ fg/a/ | %69
 d4 z g/f/ ef/g/ c2 Bc d4- | d2 ^c2 d4 z8 | z4 z g/f/ ef/g/ c2 Bc d4- | d2 ^c2 d4 z8 | %73
 z8 z e/d/ ^cd/e/ AB/c/ dc | B4 A4 z8 | z e/d/ ^cd/e/ AB/c/ dc B4 A4 | z16 | z2 A3 Bcd e8 | ^c16 |] %79
V:3
 z16 | z8 A2 B2 c2 d2 | e2 fe d3 c c4 c2 dc | B3 B A4 z8 | z16 | A2 B2 c2 d2 e2 fe d3 c | %6
w: |De- can- ta- bat|po- pu- lus I- sra- el po- pu- lus|I- sra- el,||de- can- ta- bat po- pu- lus I- sra-|
w: ||||||
 c4 c2 dc B3 B B4 | z4 c2 c2 c4 c2 d2 | _B3 B B6 BA c4 | _B3 A A4 G8 | z4 d2 d2 d4 d2 e2 | %11
w: el po- pu- lus I- sra- el|Be- ne- dic- tus es|Do- mi- ne DE- US Pa-|trum no- stro- rum,|Be- ne- dic- tus es|
w: |||||
 c3 c c4 z2 cB d4 | c3 c c4 A8 |[M:6/2] c8 _B4 A8 G4 | G12 e8 d4 | c8 B4 B8 z4 | %16
w: Do- mi- ne DE- US Pa-|trum no- stro- rum|et lau- da- bi-|lis et lau-|da- bi- lis|
w: |||||
 (E2 F2) (G2 A2) (B2 c2) d4 d4 A4 | A8 ^G4 A8 z4 | z12 (G2 A2) (B2 c2) (d2 e2) | f4 f4 d4 d8 ^c4 | %20
w: et * glo- * ri- * o- sus in|sze- cu- la|et * glo- * ri- *|o- sus in sze- cu-|
w: ||||
 d12 d8 c4 | B8 A4 A4 B2 c2 d4 |[M:3/2] c4 B6 A2 |[M:4/4] A8 |[M:4/2] z16 | z16 | %26
w: la et lau-|da- bi- lis * * *|in sæ- cu-|la;|||
w: ||||||
 z dAB ccde fe d2 c2 z E | ^FFdc B4 A4 z4 | z4 z2 E2 ^FFdc B4 | A8 z8 | z8 z4 z2 e2 | %31
w: Et u- ni- ver- sa mul- ti- tu- do Ja- cob ca-|ne- bat Al- le- lu- ja,|ca- ne- bat al- le- lu-|ja|et|
w: |||||
 c2 BB cB cd ed fe d3 c |[M:6/2] c8 z4 d3 c B2 d2 c2 B2 | A4 A4 z4 e3 d c2 e2 d2 c2 | %34
w: Da- vid et Da- * vid * cum * Can- * to- ri-|bus Ci- tha- ram per- cu- ti-|e- bat ci- tha- ram per- cu- ti-|
w: |||
 B4 c2 d2 e4 d4 d6 c2 | c8 z4 d3 c B2 d2 c2 B2 | A4 B2 c2 d4 c4 B6 A2 |[M:3/2] A12 | %38
w: e- bat in do- mo Do- mi-|ni, Ci- tha- ram per- cu- ti-|e- bat in do- mo Do- mi-|ni;|
w: ||||
[M:4/2] z4 c2 c2 c4 c2 d2 | _B3 B B2 B2 B2 A2 c4 | _BABc A4 G8 | z4 d2 d2 d4 d2 e2 | %42
w: Be- ne- dic- tus es|Do- mi- ne DE- US Pa- trum|no- * * * stro- rum|be- ne- dic- tus es|
w: ||||
[M:6/2] c3 c c2 c2 c2 B2 d4 cBdc B4 |[M:4/4] A8 |[M:6/2] c8 _B4 A8 G4 | G12 e8 d4 | c8 B4 B8 z4 | %47
w: Do- mi- nus DE- US Pa- trum no- * * * stro|rum|et lau- da- bi-|lis et lau-|da- bi- lis|
w: |||||
 (E2 F2) (G2 A2) (B2 c2) d4 d4 A4 | A8 ^G4 A8 z4 | z12 (G2 A2) (B2 c2) (d2 e2) | f4 f4 d4 d8 ^c4 | %51
w: et * glo- * ri- * o- sus in|sze- cu- la|et * glo- * ri- *|o- sus in sæ- cu-|
w: ||||
 d12 d8 c4 | B8 A4 A4 B2 c2 d4 |[M:3/2] c4 B6 A2 |[M:4/2] A8 z8 | z16 | z8 z dAB ccde | %57
w: la et lau-|da- bi- lis * * *|in sæ- cu-|la;||et u- ni- ver- sa mul- ti-|
w: ||||||
 fe d2 c2 z E ^FFdc B4 | A4 z4 z4 z2 E2 | ^FFdc B4 A8 | z2 AB cA dB c2 EF GA ^F2 | %61
w: tu- do Ja- cob ca- ne- bat Al- le- lu-|ja ca-|ne- bat al- le- lu- ja|Al- * le- * lu- ja * Al- * le- * lu-|
w: |||forte * * * * * pian * * * * *|
 G2 Bc dB e^c d2 ^FG AB ^G2 | A4 z4 z8 | z16 | z2 ^FG AB ^G2 A4 z4 | z2 AB cA dB e4 z4 | %66
w: ja al- * le- * lu- * ja al- * le- * lu-|ja||al- * le- * lu- ja|al- * le- * lu- * ja|
w: E. * * * * * * P. * * * * *|||* * * * * pian||
 z2 Bc dB e^c d4 z4 | z2 ^FG AB ^G2 A4 z4 | z2 AB cd Bc A4 z4 | z16 | %70
w: al- * le- * lu- * ja|al- * le- * lu- ja|al- * le- * lu- * ja||
w: ||||
 z4 z A/G/ ^FG/A/ Dd/c/ Bc/d/ GA/B/ cd/e/ | fe d2 c4 z8 | %72
w: Al- * * * * * * * * * * * * * * * *|* le- lu- ja,|
w: ||
 z4 z A/G/ ^FG/A/ Dd/c/ Bc/d/ Ge/d/ cd/e/ | AB/c/dc B4 A4 z4 | z4 z e/d/ cd/e/ AB/c/dc B4 | %75
w: Al- * * * * * * * * * * * * * * * *|* * * * le- lu- ja|Al\-- * * * * * * * * le- lu-|
w: |||
 A4 z4 z4 z e/d/ cd/e/ | AB/c/dc B4 A8 | z2 d4 c2 B8 | A16 |] %79
w: ja, al\-- * * * *|* * * * le- lu- ja,|Al- le- lu-|ja.|
w: ||||
V:4
 A,2 E,2 A,2 G,2 C,2 E,2 F,2 G,2 | C,2 A,,2 D,2 E,2 A,2 E,2 A,2 G,2 | %2
 C,2 E,2 F,2 G,2 C,2 E,2 F,2 C,2 | D,2 E,2 A,,4 A,2 E,2 A,2 G,2 | %4
 C,2 E,2 F,2 G,2 C,2 A,,2 D,2 E,2 | A,2 E,2 A,2 G,2 C,2 E,2 F,2 G,2 | %6
 C,2 E,2 F,2 C,2 D,2 E,2 A,,4 | F,,8- F,,8 | G,,8 _E,4 C,4- | C,4 D,4 G,,8 | G,,16 | %11
 A,,8 F,4 D,4- | D,4 E,4 A,,8 |[M:6/2] F,,4 G,,4- G,,4 A,,4 B,,8 | C,12 A,,4 B,,8 | C,4 D,8 E,12 | %16
 E,12 D,12 | E,12 A,,12 | A,,2 B,,2 C,2 D,2 E,2 F,2 G,8 E,4 | D,8 _B,,4 A,,12 | D,12 G,,4 A,,8 | %21
 B,,4 ^C,8 D,8 B,,4 |[M:3/2] C,4 D,4 E,4 |[M:4/4] A,,8 |[M:4/2] A,2 E,2 A,2 G,2 C,2 E,2 F,2 G,2 | %25
 C,2 A,,2 D,2 E,2 A,,4 E,4 | D,4 A,2 G,2 F,2 G,2 C,2 A,,2 | D,4 E,4 A,,2 C,2 D,4 | %28
 E,4 A,,2 C,2 D,4 E,4 | A,,8 A,2 E,2 A,2 G,2 | C,2 E,2 F,2 G,2 C,2 A,,2 D,2 E,2 | %31
 A,2 E,2 A,2 G,2 C,2 E,2 F,2 G,2 |[M:6/2] C,12 G,,12 | D,12 A,,12 | E,4 D,4 C,4 F,4 G,8 | %35
 C,12 G,,12 | D,4 C,4 B,,4 C,4 D,4 E,4 |[M:3/2] A,,12 |[M:4/2] F,,16 | G,,8 _E,4 C,4- | %40
 C,4 D,4 G,,8 | G,,16 |[M:6/2] A,,8 F,4 D,8 E,4 |[M:4/4] A,,8 |[M:6/2] F,,4 G,,8 A,,4 B,,8 | %45
 C,12 A,,4 B,,8 | C,4 D,8 E,12 | E,12 D,12 | E,12 A,,12 | A,,2 B,,2 C,2 D,2 E,2 F,2 G,8 E,4 | %50
 D,8 _B,,4 A,,12 | D,12 G,,4 A,,8 | B,,4 C,8 ^D,4 C,4 B,,4 |[M:3/2] C,4 D,4 E,4 | %54
[M:4/2] A,,8 A,2 E,2 A,2 G,2 | C,2 E,2 F,2 G,2 C,2 A,,2 D,2 E,2 | A,,4 E,4 D,4 A,2 G,2 | %57
 F,2 G,2 C,2 A,,2 D,4 E,4 | A,,2 C,2 D,4 E,4 A,,2 C,2 | D,4 E,4 A,,8 | A,,4 A,,2 G,,2 C,4 E,2 D,2 | %61
 G,,4 G,,2 A,,2 D,4 D,2 E,2 | A,,4 A,,2 G,,2 C,4 C,2 D,2 | G,,4 G,,2 A,,2 D,4 D,2 E,2 | %64
 A,,2 D,2 A,,2 E,2 A,,2 D,2 A,,2 E,2 | A,,4 A,,2 G,,2 C,4 C,2 D,2 | G,,4 G,,2 A,,2 D,4 D,2 E,2 | %67
 A,,2 D,2 A,,2 E,2 A,,2 D,2 A,,2 E,2 | A,,2 D,2 A,,2 E,2 A,,4 D,4 | G,2 G,,2 C,4 F,4 _B,2 G,2 | %70
 A,4 D,4 B,,4 E,2 C,2 | F,2 G,2 C,4 F,4 _B,2 G,2 | A,4 D,4 B,,4 C,4 | F,2 D,2 E,4 A,,4 D,4 | %74
 E,4 A,,4 F,2 D,2 E,4 | A,,4 D,4 E,4 A,,4 | F,2 D,2 E,4 A,,8 | z2 D,4 A,,2 E,8 | A,,16 |] %79

